build/img/icons-sprite/icon-email.svg

<svg width="48" height="48" fill="none" xmlns="http://www.w3.org/2000/svg"><path d="M45 7.5H3C1.503 7.5.315 8.616.09 10.053L24 25.806l23.91-15.753C47.685 8.616 46.497 7.5 45 7.5zM0 34.476V13.584l16.182 10.662L0 34.476zm48 0l-16.182-10.23L48 13.584v20.892zm-23.175-5.622l4.245-2.796 18.834 11.91C47.673 39.393 46.491 40.5 45 40.5H3c-1.491 0-2.673-1.107-2.904-2.532L18.93 26.055l4.245 2.799c.252.165.537.246.825.246.288 0 .573-.081.825-.246z" fill="currentColor"/></svg>

<svg width="48" height="48" viewBox="0 0 48 48" fill="none" xmlns="http://www.w3.org/2000/svg">
<path d="M45 7.5H3C1.503 7.5 0.314996 8.616 0.0899963 10.053L24 25.806L47.91 10.053C47.685 8.616 46.497 7.5 45 7.5Z" fill="currentColor"/>
<path d="M0 34.476V13.584L16.182 24.246L0 34.476Z" fill="currentColor"/>
<path d="M48 34.476L31.818 24.246L48 13.584V34.476Z" fill="currentColor"/>
<path d="M24.825 28.854L29.07 26.058L47.904 37.968C47.673 39.393 46.491 40.5 45 40.5H2.99999C1.50899 40.5 0.326993 39.393 0.095993 37.968L18.93 26.055L23.175 28.854C23.427 29.019 23.712 29.1 24 29.1C24.288 29.1 24.573 29.019 24.825 28.854Z" fill="currentColor"/>
</svg>
